// This is a library file that is included in other files
// It offers a family of curves

startshape test_i_curves

 rule curveright_0.9_5 {
 SQUARE { } 
 curveright_0.9_5 { rotate -5 size 0.9 x -0.0124921 y 0.909067 }
}

 rule curveright_0.9_4 {
 SQUARE { } 
 curveright_0.9_4 { rotate -4 size 0.9 x -0.0197055 y 0.917513 }
}

 rule curveright_0.9_3 {
 SQUARE { } 
 curveright_0.9_3 { rotate -3 size 0.9 x -0.0270653 y 0.925832 }
}

 rule curveright_0.9_2 {
 SQUARE { } 
 curveright_0.9_2 { rotate -2 size 0.9 x -0.0345691 y 0.934021 }
}

 rule curveright_0.9_1 {
 SQUARE { } 
 curveright_0.9_1 { rotate -1 size 0.9 x -0.0422147 y 0.942078 }
}

rule curveleft_0.9_0 {
 SQUARE { } 
 curveleft_0.9_0 { rotate 0 size 0.9 x 0.0500008 y 0.950001 }
}

rule curveleft_0.9_1 {
 SQUARE { } 
 curveleft_0.9_1 { rotate 1 size 0.9 x 0.0422158 y 0.942079 }
}

rule curveleft_0.9_2 {
 SQUARE { } 
 curveleft_0.9_2 { rotate 2 size 0.9 x 0.0345701 y 0.934022 }
}

rule curveleft_0.9_3 {
 SQUARE { } 
 curveleft_0.9_3 { rotate 3 size 0.9 x 0.0270664 y 0.925833 }
}

rule curveleft_0.9_4 {
 SQUARE { } 
 curveleft_0.9_4 { rotate 4 size 0.9 x 0.0197066 y 0.917514 }
}

rule curveleft_0.9_5 {
 SQUARE { } 
 curveleft_0.9_5 { rotate 5 size 0.9 x 0.0124931 y 0.909068 }
}

 rule curveright_0.91_5 {
 SQUARE { } 
 curveright_0.91_5 { rotate -5 size 0.91 x -0.00707531 y 0.913612 }
}

 rule curveright_0.91_4 {
 SQUARE { } 
 curveright_0.91_4 { rotate -4 size 0.91 x -0.0143689 y 0.922152 }
}

 rule curveright_0.91_3 {
 SQUARE { } 
 curveright_0.91_3 { rotate -3 size 0.91 x -0.0218104 y 0.930563 }
}

 rule curveright_0.91_2 {
 SQUARE { } 
 curveright_0.91_2 { rotate -2 size 0.91 x -0.0293976 y 0.938843 }
}

 rule curveright_0.91_1 {
 SQUARE { } 
 curveright_0.91_1 { rotate -1 size 0.91 x -0.0371282 y 0.94699 }
}

rule curveleft_0.91_0 {
 SQUARE { } 
 curveleft_0.91_0 { rotate 0 size 0.91 x 0.0450008 y 0.955001 }
}

rule curveleft_0.91_1 {
 SQUARE { } 
 curveleft_0.91_1 { rotate 1 size 0.91 x 0.0371293 y 0.946991 }
}

rule curveleft_0.91_2 {
 SQUARE { } 
 curveleft_0.91_2 { rotate 2 size 0.91 x 0.0293987 y 0.938844 }
}

rule curveleft_0.91_3 {
 SQUARE { } 
 curveleft_0.91_3 { rotate 3 size 0.91 x 0.0218115 y 0.930565 }
}

rule curveleft_0.91_4 {
 SQUARE { } 
 curveleft_0.91_4 { rotate 4 size 0.91 x 0.01437 y 0.922153 }
}

rule curveleft_0.91_5 {
 SQUARE { } 
 curveleft_0.91_5 { rotate 5 size 0.91 x 0.00707635 y 0.913614 }
}

 rule curveright_0.92_5 {
 SQUARE { } 
 curveright_0.92_5 { rotate -5 size 0.92 x -0.00165855 y 0.918158 }
}

 rule curveright_0.92_4 {
 SQUARE { } 
 curveright_0.92_4 { rotate -4 size 0.92 x -0.00903229 y 0.926791 }
}

 rule curveright_0.92_3 {
 SQUARE { } 
 curveright_0.92_3 { rotate -3 size 0.92 x -0.0165556 y 0.935295 }
}

 rule curveright_0.92_2 {
 SQUARE { } 
 curveright_0.92_2 { rotate -2 size 0.92 x -0.0242262 y 0.943666 }
}

 rule curveright_0.92_1 {
 SQUARE { } 
 curveright_0.92_1 { rotate -1 size 0.92 x -0.0320417 y 0.951902 }
}

rule curveleft_0.92_0 {
 SQUARE { } 
 curveleft_0.92_0 { rotate 0 size 0.92 x 0.0400008 y 0.960001 }
}

rule curveleft_0.92_1 {
 SQUARE { } 
 curveleft_0.92_1 { rotate 1 size 0.92 x 0.0320428 y 0.951903 }
}

rule curveleft_0.92_2 {
 SQUARE { } 
 curveleft_0.92_2 { rotate 2 size 0.92 x 0.0242272 y 0.943667 }
}

rule curveleft_0.92_3 {
 SQUARE { } 
 curveleft_0.92_3 { rotate 3 size 0.92 x 0.0165567 y 0.935296 }
}

rule curveleft_0.92_4 {
 SQUARE { } 
 curveleft_0.92_4 { rotate 4 size 0.92 x 0.00903342 y 0.926793 }
}

rule curveleft_0.92_5 {
 SQUARE { } 
 curveleft_0.92_5 { rotate 5 size 0.92 x 0.00165959 y 0.918159 }
}

 rule curveright_0.93_5 {
 SQUARE { } 
 curveright_0.93_5 { rotate -5 size 0.93 x 0.00375817 y 0.922703 }
}

 rule curveright_0.93_4 {
 SQUARE { } 
 curveright_0.93_4 { rotate -4 size 0.93 x -0.00369572 y 0.93143 }
}

 rule curveright_0.93_3 {
 SQUARE { } 
 curveright_0.93_3 { rotate -3 size 0.93 x -0.0113008 y 0.940026 }
}

 rule curveright_0.93_2 {
 SQUARE { } 
 curveright_0.93_2 { rotate -2 size 0.93 x -0.0190547 y 0.948488 }
}

 rule curveright_0.93_1 {
 SQUARE { } 
 curveright_0.93_1 { rotate -1 size 0.93 x -0.0269552 y 0.956814 }
}

rule curveleft_0.93_0 {
 SQUARE { } 
 curveleft_0.93_0 { rotate 0 size 0.93 x 0.0350009 y 0.965001 }
}

rule curveleft_0.93_1 {
 SQUARE { } 
 curveleft_0.93_1 { rotate 1 size 0.93 x 0.0269564 y 0.956815 }
}

rule curveleft_0.93_2 {
 SQUARE { } 
 curveleft_0.93_2 { rotate 2 size 0.93 x 0.0190558 y 0.948489 }
}

rule curveleft_0.93_3 {
 SQUARE { } 
 curveleft_0.93_3 { rotate 3 size 0.93 x 0.0113019 y 0.940027 }
}

rule curveleft_0.93_4 {
 SQUARE { } 
 curveleft_0.93_4 { rotate 4 size 0.93 x 0.00369686 y 0.931432 }
}

rule curveleft_0.93_5 {
 SQUARE { } 
 curveleft_0.93_5 { rotate 5 size 0.93 x -0.00375711 y 0.922704 }
}

 rule curveright_0.94_5 {
 SQUARE { } 
 curveright_0.94_5 { rotate -5 size 0.94 x 0.00917493 y 0.927248 }
}

 rule curveright_0.94_4 {
 SQUARE { } 
 curveright_0.94_4 { rotate -4 size 0.94 x 0.00164089 y 0.936069 }
}

 rule curveright_0.94_3 {
 SQUARE { } 
 curveright_0.94_3 { rotate -3 size 0.94 x -0.00604596 y 0.944758 }
}

 rule curveright_0.94_2 {
 SQUARE { } 
 curveright_0.94_2 { rotate -2 size 0.94 x -0.0138833 y 0.953311 }
}

 rule curveright_0.94_1 {
 SQUARE { } 
 curveright_0.94_1 { rotate -1 size 0.94 x -0.0218687 y 0.961725 }
}

rule curveleft_0.94_0 {
 SQUARE { } 
 curveleft_0.94_0 { rotate 0 size 0.94 x 0.0300009 y 0.970001 }
}

rule curveleft_0.94_1 {
 SQUARE { } 
 curveleft_0.94_1 { rotate 1 size 0.94 x 0.0218699 y 0.961727 }
}

rule curveleft_0.94_2 {
 SQUARE { } 
 curveleft_0.94_2 { rotate 2 size 0.94 x 0.0138844 y 0.953312 }
}

rule curveleft_0.94_3 {
 SQUARE { } 
 curveleft_0.94_3 { rotate 3 size 0.94 x 0.00604711 y 0.944759 }
}

rule curveleft_0.94_4 {
 SQUARE { } 
 curveleft_0.94_4 { rotate 4 size 0.94 x -0.00163974 y 0.936071 }
}

rule curveleft_0.94_5 {
 SQUARE { } 
 curveleft_0.94_5 { rotate 5 size 0.94 x -0.00917386 y 0.927249 }
}

 rule curveright_0.95_5 {
 SQUARE { } 
 curveright_0.95_5 { rotate -5 size 0.95 x 0.0145917 y 0.931793 }
}

 rule curveright_0.95_4 {
 SQUARE { } 
 curveright_0.95_4 { rotate -4 size 0.95 x 0.0069775 y 0.940708 }
}

 rule curveright_0.95_3 {
 SQUARE { } 
 curveright_0.95_3 { rotate -3 size 0.95 x 0 y 0.949489 }
}

 rule curveright_0.95_2 {
 SQUARE { } 
 curveright_0.95_2 { rotate -2 size 0.95 x -0.00871182 y 0.958133 }
}

 rule curveright_0.95_1 {
 SQUARE { } 
 curveright_0.95_1 { rotate -1 size 0.95 x -0.0167822 y 0.966637 }
}

rule curveleft_0.95_0 {
 SQUARE { } 
 curveleft_0.95_0 { rotate 0 size 0.95 x 0.0250009 y 0.975001 }
}

rule curveleft_0.95_1 {
 SQUARE { } 
 curveleft_0.95_1 { rotate 1 size 0.95 x 0.0167834 y 0.966639 }
}

rule curveleft_0.95_2 {
 SQUARE { } 
 curveleft_0.95_2 { rotate 2 size 0.95 x 0.00871294 y 0.958134 }
}

rule curveleft_0.95_3 {
 SQUARE { } 
 curveleft_0.95_3 { rotate 3 size 0.95 x 0 y 0.94949 }
}

rule curveleft_0.95_4 {
 SQUARE { } 
 curveleft_0.95_4 { rotate 4 size 0.95 x -0.00697634 y 0.94071 }
}

rule curveleft_0.95_5 {
 SQUARE { } 
 curveleft_0.95_5 { rotate 5 size 0.95 x -0.0145906 y 0.931794 }
}

 rule curveright_0.96_5 {
 SQUARE { } 
 curveright_0.96_5 { rotate -5 size 0.96 x 0.0200085 y 0.936338 }
}

 rule curveright_0.96_4 {
 SQUARE { } 
 curveright_0.96_4 { rotate -4 size 0.96 x 0.0123141 y 0.945347 }
}

 rule curveright_0.96_3 {
 SQUARE { } 
 curveright_0.96_3 { rotate -3 size 0.96 x 0.00446371 y 0.954221 }
}

 rule curveright_0.96_2 {
 SQUARE { } 
 curveright_0.96_2 { rotate -2 size 0.96 x -0.00354036 y 0.962956 }
}

 rule curveright_0.96_1 {
 SQUARE { } 
 curveright_0.96_1 { rotate -1 size 0.96 x -0.0116957 y 0.971549 }
}

rule curveleft_0.96_0 {
 SQUARE { } 
 curveleft_0.96_0 { rotate 0 size 0.96 x 0.0200009 y 0.980001 }
}

rule curveleft_0.96_1 {
 SQUARE { } 
 curveleft_0.96_1 { rotate 1 size 0.96 x 0.0116969 y 0.971551 }
}

rule curveleft_0.96_2 {
 SQUARE { } 
 curveleft_0.96_2 { rotate 2 size 0.96 x 0.00354149 y 0.962957 }
}

rule curveleft_0.96_3 {
 SQUARE { } 
 curveleft_0.96_3 { rotate 3 size 0.96 x -0.00446254 y 0.954222 }
}

rule curveleft_0.96_4 {
 SQUARE { } 
 curveleft_0.96_4 { rotate 4 size 0.96 x -0.0123129 y 0.945349 }
}

rule curveleft_0.96_5 {
 SQUARE { } 
 curveleft_0.96_5 { rotate 5 size 0.96 x -0.0200074 y 0.93634 }
}

 rule curveright_0.97_5 {
 SQUARE { } 
 curveright_0.97_5 { rotate -5 size 0.97 x 0.0254252 y 0.940884 }
}

 rule curveright_0.97_4 {
 SQUARE { } 
 curveright_0.97_4 { rotate -4 size 0.97 x 0.0176507 y 0.949986 }
}

 rule curveright_0.97_3 {
 SQUARE { } 
 curveright_0.97_3 { rotate -3 size 0.97 x 0.00971855 y 0.958952 }
}

 rule curveright_0.97_2 {
 SQUARE { } 
 curveright_0.97_2 { rotate -2 size 0.97 x 0.0016311 y 0.967778 }
}

 rule curveright_0.97_1 {
 SQUARE { } 
 curveright_0.97_1 { rotate -1 size 0.97 x -0.00660916 y 0.976461 }
}

rule curveleft_0.97_0 {
 SQUARE { } 
 curveleft_0.97_0 { rotate 0 size 0.97 x 0.0150009 y 0.985001 }
}

rule curveleft_0.97_1 {
 SQUARE { } 
 curveleft_0.97_1 { rotate 1 size 0.97 x 0.00661039 y 0.976463 }
}

rule curveleft_0.97_2 {
 SQUARE { } 
 curveleft_0.97_2 { rotate 2 size 0.97 x -0.00162996 y 0.967779 }
}

rule curveleft_0.97_3 {
 SQUARE { } 
 curveleft_0.97_3 { rotate 3 size 0.97 x -0.00971737 y 0.958953 }
}

rule curveleft_0.97_4 {
 SQUARE { } 
 curveleft_0.97_4 { rotate 4 size 0.97 x -0.0176495 y 0.949988 }
}

rule curveleft_0.97_5 {
 SQUARE { } 
 curveleft_0.97_5 { rotate 5 size 0.97 x -0.0254241 y 0.940885 }
}

 rule curveright_0.98_5 {
 SQUARE { } 
 curveright_0.98_5 { rotate -5 size 0.98 x 0.030842 y 0.945429 }
}

 rule curveright_0.98_4 {
 SQUARE { } 
 curveright_0.98_4 { rotate -4 size 0.98 x 0.0229873 y 0.954625 }
}

 rule curveright_0.98_3 {
 SQUARE { } 
 curveright_0.98_3 { rotate -3 size 0.98 x 0.0149734 y 0.963684 }
}

 rule curveright_0.98_2 {
 SQUARE { } 
 curveright_0.98_2 { rotate -2 size 0.98 x 0.00680257 y 0.9726 }
}

 rule curveright_0.98_1 {
 SQUARE { } 
 curveright_0.98_1 { rotate -1 size 0.98 x -0.00152265 y 0.981373 }
}

rule curveleft_0.98_0 {
 SQUARE { } 
 curveleft_0.98_0 { rotate 0 size 0.98 x 0.0100009 y 0.990001 }
}

rule curveleft_0.98_1 {
 SQUARE { } 
 curveleft_0.98_1 { rotate 1 size 0.98 x 0.00152389 y 0.981375 }
}

rule curveleft_0.98_2 {
 SQUARE { } 
 curveleft_0.98_2 { rotate 2 size 0.98 x -0.00680141 y 0.972602 }
}

rule curveleft_0.98_3 {
 SQUARE { } 
 curveleft_0.98_3 { rotate 3 size 0.98 x -0.0149722 y 0.963685 }
}

rule curveleft_0.98_4 {
 SQUARE { } 
 curveleft_0.98_4 { rotate 4 size 0.98 x -0.0229861 y 0.954627 }
}

rule curveleft_0.98_5 {
 SQUARE { } 
 curveleft_0.98_5 { rotate 5 size 0.98 x -0.0308409 y 0.94543 }
}

 rule curveright_0.99_5 {
 SQUARE { } 
 curveright_0.99_5 { rotate -5 size 0.99 x 0.0362587 y 0.949974 }
}

 rule curveright_0.99_4 {
 SQUARE { } 
 curveright_0.99_4 { rotate -4 size 0.99 x 0.028324 y 0.959264 }
}

 rule curveright_0.99_3 {
 SQUARE { } 
 curveright_0.99_3 { rotate -3 size 0.99 x 0.0202282 y 0.968415 }
}

 rule curveright_0.99_2 {
 SQUARE { } 
 curveright_0.99_2 { rotate -2 size 0.99 x 0.011974 y 0.977423 }
}

 rule curveright_0.99_1 {
 SQUARE { } 
 curveright_0.99_1 { rotate -1 size 0.99 x 0.00356386 y 0.986285 }
}

rule curveleft_0.99_0 {
 SQUARE { } 
 curveleft_0.99_0 { rotate 0 size 0.99 x 0.0050009 y 0.995001 }
}

rule curveleft_0.99_1 {
 SQUARE { } 
 curveleft_0.99_1 { rotate 1 size 0.99 x -0.00356261 y 0.986287 }
}

rule curveleft_0.99_2 {
 SQUARE { } 
 curveleft_0.99_2 { rotate 2 size 0.99 x -0.0119729 y 0.977424 }
}

rule curveleft_0.99_3 {
 SQUARE { } 
 curveleft_0.99_3 { rotate 3 size 0.99 x -0.020227 y 0.968416 }
}

rule curveleft_0.99_4 {
 SQUARE { } 
 curveleft_0.99_4 { rotate 4 size 0.99 x -0.0283227 y 0.959266 }
}

rule curveleft_0.99_5 {
 SQUARE { } 
 curveleft_0.99_5 { rotate 5 size 0.99 x -0.0362576 y 0.949975 }
}

 rule curveright_1_5 {
 SQUARE { } 
 curveright_1_5 { rotate -5 size 1 x 0.0416755 y 0.954519 }
}

 rule curveright_1_4 {
 SQUARE { } 
 curveright_1_4 { rotate -4 size 1 x 0.0336605 y 0.963903 }
}

 rule curveright_1_3 {
 SQUARE { } 
 curveright_1_3 { rotate -3 size 1 x 0.025483 y 0.973146 }
}

 rule curveright_1_2 {
 SQUARE { } 
 curveright_1_2 { rotate -2 size 1 x 0.0171454 y 0.982245 }
}

 rule curveright_1_1 {
 SQUARE { } 
 curveright_1_1 { rotate -1 size 1 x 0.00865033 y 0.991197 }
}

rule curveleft_1_0 {
 SQUARE { } 
 curveleft_1_0 { rotate 0 size 1 x 0 y 1 }
}

rule curveleft_1_1 {
 SQUARE { } 
 curveleft_1_1 { rotate 1 size 1 x -0.00864906 y 0.991199 }
}

rule curveleft_1_2 {
 SQUARE { } 
 curveleft_1_2 { rotate 2 size 1 x -0.0171443 y 0.982247 }
}

rule curveleft_1_3 {
 SQUARE { } 
 curveleft_1_3 { rotate 3 size 1 x -0.0254818 y 0.973148 }
}

rule curveleft_1_4 {
 SQUARE { } 
 curveleft_1_4 { rotate 4 size 1 x -0.0336593 y 0.963905 }
}

rule curveleft_1_5 {
 SQUARE { } 
 curveleft_1_5 { rotate 5 size 1 x -0.0416743 y 0.954521 }
}

 rule curveright_1.01_5 {
 SQUARE { } 
 curveright_1.01_5 { rotate -5 size 1.01 x 0.0470922 y 0.959064 }
}

 rule curveright_1.01_4 {
 SQUARE { } 
 curveright_1.01_4 { rotate -4 size 1.01 x 0.0389971 y 0.968542 }
}

 rule curveright_1.01_3 {
 SQUARE { } 
 curveright_1.01_3 { rotate -3 size 1.01 x 0.0307379 y 0.977878 }
}

 rule curveright_1.01_2 {
 SQUARE { } 
 curveright_1.01_2 { rotate -2 size 1.01 x 0.0223169 y 0.987068 }
}

 rule curveright_1.01_1 {
 SQUARE { } 
 curveright_1.01_1 { rotate -1 size 1.01 x 0.0137368 y 0.996109 }
}

rule curveleft_1.01_0 {
 SQUARE { } 
 curveleft_1.01_0 { rotate 0 size 1.01 x -0.00499905 y 1.005 }
}

rule curveleft_1.01_1 {
 SQUARE { } 
 curveleft_1.01_1 { rotate 1 size 1.01 x -0.0137356 y 0.996111 }
}

rule curveleft_1.01_2 {
 SQUARE { } 
 curveleft_1.01_2 { rotate 2 size 1.01 x -0.0223157 y 0.987069 }
}

rule curveleft_1.01_3 {
 SQUARE { } 
 curveleft_1.01_3 { rotate 3 size 1.01 x -0.0307366 y 0.977879 }
}

rule curveleft_1.01_4 {
 SQUARE { } 
 curveleft_1.01_4 { rotate 4 size 1.01 x -0.0389959 y 0.968544 }
}

rule curveleft_1.01_5 {
 SQUARE { } 
 curveleft_1.01_5 { rotate 5 size 1.01 x -0.0470911 y 0.959066 }
}

 rule curveright_1.02_5 {
 SQUARE { } 
 curveright_1.02_5 { rotate -5 size 1.02 x 0.0525089 y 0.96361 }
}

 rule curveright_1.02_4 {
 SQUARE { } 
 curveright_1.02_4 { rotate -4 size 1.02 x 0.0443337 y 0.973181 }
}

 rule curveright_1.02_3 {
 SQUARE { } 
 curveright_1.02_3 { rotate -3 size 1.02 x 0.0359927 y 0.982609 }
}

 rule curveright_1.02_2 {
 SQUARE { } 
 curveright_1.02_2 { rotate -2 size 1.02 x 0.0274883 y 0.99189 }
}

 rule curveright_1.02_1 {
 SQUARE { } 
 curveright_1.02_1 { rotate -1 size 1.02 x 0.0188233 y 1.00102 }
}

rule curveleft_1.02_0 {
 SQUARE { } 
 curveleft_1.02_0 { rotate 0 size 1.02 x -0.00999901 y 1.01 }
}

rule curveleft_1.02_1 {
 SQUARE { } 
 curveleft_1.02_1 { rotate 1 size 1.02 x -0.018822 y 1.00102 }
}

rule curveleft_1.02_2 {
 SQUARE { } 
 curveleft_1.02_2 { rotate 2 size 1.02 x -0.0274871 y 0.991892 }
}

rule curveleft_1.02_3 {
 SQUARE { } 
 curveleft_1.02_3 { rotate 3 size 1.02 x -0.0359914 y 0.982611 }
}

rule curveleft_1.02_4 {
 SQUARE { } 
 curveleft_1.02_4 { rotate 4 size 1.02 x -0.0443325 y 0.973183 }
}

rule curveleft_1.02_5 {
 SQUARE { } 
 curveleft_1.02_5 { rotate 5 size 1.02 x -0.0525078 y 0.963611 }
}

 rule curveright_1.03_5 {
 SQUARE { } 
 curveright_1.03_5 { rotate -5 size 1.03 x 0.0579257 y 0.968155 }
}

 rule curveright_1.03_4 {
 SQUARE { } 
 curveright_1.03_4 { rotate -4 size 1.03 x 0.0496704 y 0.977821 }
}

 rule curveright_1.03_3 {
 SQUARE { } 
 curveright_1.03_3 { rotate -3 size 1.03 x 0.0412475 y 0.987341 }
}

 rule curveright_1.03_2 {
 SQUARE { } 
 curveright_1.03_2 { rotate -2 size 1.03 x 0.0326598 y 0.996713 }
}

 rule curveright_1.03_1 {
 SQUARE { } 
 curveright_1.03_1 { rotate -1 size 1.03 x 0.0239099 y 1.00593 }
}

rule curveleft_1.03_0 {
 SQUARE { } 
 curveleft_1.03_0 { rotate 0 size 1.03 x -0.014999 y 1.015 }
}

rule curveleft_1.03_1 {
 SQUARE { } 
 curveleft_1.03_1 { rotate 1 size 1.03 x -0.0239086 y 1.00593 }
}

rule curveleft_1.03_2 {
 SQUARE { } 
 curveleft_1.03_2 { rotate 2 size 1.03 x -0.0326586 y 0.996714 }
}

rule curveleft_1.03_3 {
 SQUARE { } 
 curveleft_1.03_3 { rotate 3 size 1.03 x -0.0412463 y 0.987342 }
}

rule curveleft_1.03_4 {
 SQUARE { } 
 curveleft_1.03_4 { rotate 4 size 1.03 x -0.0496691 y 0.977822 }
}

rule curveleft_1.03_5 {
 SQUARE { } 
 curveleft_1.03_5 { rotate 5 size 1.03 x -0.0579246 y 0.968156 }
}

 rule curveright_1.04_5 {
 SQUARE { } 
 curveright_1.04_5 { rotate -5 size 1.04 x 0.0633425 y 0.9727 }
}

 rule curveright_1.04_4 {
 SQUARE { } 
 curveright_1.04_4 { rotate -4 size 1.04 x 0.0550069 y 0.98246 }
}

 rule curveright_1.04_3 {
 SQUARE { } 
 curveright_1.04_3 { rotate -3 size 1.04 x 0.0465023 y 0.992072 }
}

 rule curveright_1.04_2 {
 SQUARE { } 
 curveright_1.04_2 { rotate -2 size 1.04 x 0.0378313 y 1.00154 }
}

 rule curveright_1.04_1 {
 SQUARE { } 
 curveright_1.04_1 { rotate -1 size 1.04 x 0.0289963 y 1.01085 }
}

rule curveleft_1.04_0 {
 SQUARE { } 
 curveleft_1.04_0 { rotate 0 size 1.04 x -0.019999 y 1.02 }
}

rule curveleft_1.04_1 {
 SQUARE { } 
 curveleft_1.04_1 { rotate 1 size 1.04 x -0.028995 y 1.01085 }
}

rule curveleft_1.04_2 {
 SQUARE { } 
 curveleft_1.04_2 { rotate 2 size 1.04 x -0.03783 y 1.00154 }
}

rule curveleft_1.04_3 {
 SQUARE { } 
 curveleft_1.04_3 { rotate 3 size 1.04 x -0.0465011 y 0.992074 }
}

rule curveleft_1.04_4 {
 SQUARE { } 
 curveleft_1.04_4 { rotate 4 size 1.04 x -0.0550057 y 0.982461 }
}

rule curveleft_1.04_5 {
 SQUARE { } 
 curveleft_1.04_5 { rotate 5 size 1.04 x -0.0633413 y 0.972701 }
}

 rule curveright_1.05_5 {
 SQUARE { } 
 curveright_1.05_5 { rotate -5 size 1.05 x 0.0687592 y 0.977245 }
}

 rule curveright_1.05_4 {
 SQUARE { } 
 curveright_1.05_4 { rotate -4 size 1.05 x 0.0603435 y 0.987099 }
}

 rule curveright_1.05_3 {
 SQUARE { } 
 curveright_1.05_3 { rotate -3 size 1.05 x 0.0517571 y 0.996804 }
}

 rule curveright_1.05_2 {
 SQUARE { } 
 curveright_1.05_2 { rotate -2 size 1.05 x 0.0430027 y 1.00636 }
}

 rule curveright_1.05_1 {
 SQUARE { } 
 curveright_1.05_1 { rotate -1 size 1.05 x 0.0340828 y 1.01576 }
}

rule curveleft_1.05_0 {
 SQUARE { } 
 curveleft_1.05_0 { rotate 0 size 1.05 x -0.024999 y 1.025 }
}

rule curveleft_1.05_1 {
 SQUARE { } 
 curveleft_1.05_1 { rotate 1 size 1.05 x -0.0340815 y 1.01576 }
}

rule curveleft_1.05_2 {
 SQUARE { } 
 curveleft_1.05_2 { rotate 2 size 1.05 x -0.0430014 y 1.00636 }
}

rule curveleft_1.05_3 {
 SQUARE { } 
 curveleft_1.05_3 { rotate 3 size 1.05 x -0.0517558 y 0.996805 }
}

rule curveleft_1.05_4 {
 SQUARE { } 
 curveleft_1.05_4 { rotate 4 size 1.05 x -0.0603422 y 0.9871 }
}

rule curveleft_1.05_5 {
 SQUARE { } 
 curveleft_1.05_5 { rotate 5 size 1.05 x -0.068758 y 0.977246 }
}

 rule curveright_1.06_5 {
 SQUARE { } 
 curveright_1.06_5 { rotate -5 size 1.06 x 0.074176 y 0.98179 }
}

 rule curveright_1.06_4 {
 SQUARE { } 
 curveright_1.06_4 { rotate -4 size 1.06 x 0.0656802 y 0.991738 }
}

 rule curveright_1.06_3 {
 SQUARE { } 
 curveright_1.06_3 { rotate -3 size 1.06 x 0.057012 y 1.00154 }
}

 rule curveright_1.06_2 {
 SQUARE { } 
 curveright_1.06_2 { rotate -2 size 1.06 x 0.0481742 y 1.01118 }
}

 rule curveright_1.06_1 {
 SQUARE { } 
 curveright_1.06_1 { rotate -1 size 1.06 x 0.0391693 y 1.02067 }
}

rule curveleft_1.06_0 {
 SQUARE { } 
 curveleft_1.06_0 { rotate 0 size 1.06 x -0.029999 y 1.03 }
}

rule curveleft_1.06_1 {
 SQUARE { } 
 curveleft_1.06_1 { rotate 1 size 1.06 x -0.039168 y 1.02067 }
}

rule curveleft_1.06_2 {
 SQUARE { } 
 curveleft_1.06_2 { rotate 2 size 1.06 x -0.0481729 y 1.01118 }
}

rule curveleft_1.06_3 {
 SQUARE { } 
 curveleft_1.06_3 { rotate 3 size 1.06 x -0.0570107 y 1.00154 }
}

rule curveleft_1.06_4 {
 SQUARE { } 
 curveleft_1.06_4 { rotate 4 size 1.06 x -0.0656789 y 0.991739 }
}

rule curveleft_1.06_5 {
 SQUARE { } 
 curveleft_1.06_5 { rotate 5 size 1.06 x -0.0741748 y 0.981792 }
}

 rule curveright_1.07_5 {
 SQUARE { } 
 curveright_1.07_5 { rotate -5 size 1.07 x 0.0795927 y 0.986336 }
}

 rule curveright_1.07_4 {
 SQUARE { } 
 curveright_1.07_4 { rotate -4 size 1.07 x 0.0710168 y 0.996377 }
}

 rule curveright_1.07_3 {
 SQUARE { } 
 curveright_1.07_3 { rotate -3 size 1.07 x 0.0622668 y 1.00627 }
}

 rule curveright_1.07_2 {
 SQUARE { } 
 curveright_1.07_2 { rotate -2 size 1.07 x 0.0533456 y 1.016 }
}

 rule curveright_1.07_1 {
 SQUARE { } 
 curveright_1.07_1 { rotate -1 size 1.07 x 0.0442559 y 1.02558 }
}

rule curveleft_1.07_0 {
 SQUARE { } 
 curveleft_1.07_0 { rotate 0 size 1.07 x -0.034999 y 1.035 }
}

rule curveleft_1.07_1 {
 SQUARE { } 
 curveleft_1.07_1 { rotate 1 size 1.07 x -0.0442545 y 1.02558 }
}

rule curveleft_1.07_2 {
 SQUARE { } 
 curveleft_1.07_2 { rotate 2 size 1.07 x -0.0533444 y 1.016 }
}

rule curveleft_1.07_3 {
 SQUARE { } 
 curveleft_1.07_3 { rotate 3 size 1.07 x -0.0622655 y 1.00627 }
}

rule curveleft_1.07_4 {
 SQUARE { } 
 curveleft_1.07_4 { rotate 4 size 1.07 x -0.0710155 y 0.996378 }
}

rule curveleft_1.07_5 {
 SQUARE { } 
 curveleft_1.07_5 { rotate 5 size 1.07 x -0.0795915 y 0.986337 }
}

 rule curveright_1.08_5 {
 SQUARE { } 
 curveright_1.08_5 { rotate -5 size 1.08 x 0.0850095 y 0.990881 }
}

 rule curveright_1.08_4 {
 SQUARE { } 
 curveright_1.08_4 { rotate -4 size 1.08 x 0.0763534 y 1.00102 }
}

 rule curveright_1.08_3 {
 SQUARE { } 
 curveright_1.08_3 { rotate -3 size 1.08 x 0.0675217 y 1.011 }
}

 rule curveright_1.08_2 {
 SQUARE { } 
 curveright_1.08_2 { rotate -2 size 1.08 x 0.0585171 y 1.02083 }
}

 rule curveright_1.08_1 {
 SQUARE { } 
 curveright_1.08_1 { rotate -1 size 1.08 x 0.0493424 y 1.03049 }
}

rule curveleft_1.08_0 {
 SQUARE { } 
 curveleft_1.08_0 { rotate 0 size 1.08 x -0.039999 y 1.04 }
}

rule curveleft_1.08_1 {
 SQUARE { } 
 curveleft_1.08_1 { rotate 1 size 1.08 x -0.049341 y 1.03049 }
}

rule curveleft_1.08_2 {
 SQUARE { } 
 curveleft_1.08_2 { rotate 2 size 1.08 x -0.0585158 y 1.02083 }
}

rule curveleft_1.08_3 {
 SQUARE { } 
 curveleft_1.08_3 { rotate 3 size 1.08 x -0.0675204 y 1.011 }
}

rule curveleft_1.08_4 {
 SQUARE { } 
 curveleft_1.08_4 { rotate 4 size 1.08 x -0.0763521 y 1.00102 }
}

rule curveleft_1.08_5 {
 SQUARE { } 
 curveleft_1.08_5 { rotate 5 size 1.08 x -0.0850083 y 0.990882 }
}

 rule curveright_1.09_5 {
 SQUARE { } 
 curveright_1.09_5 { rotate -5 size 1.09 x 0.0904263 y 0.995426 }
}

 rule curveright_1.09_4 {
 SQUARE { } 
 curveright_1.09_4 { rotate -4 size 1.09 x 0.08169 y 1.00565 }
}

 rule curveright_1.09_3 {
 SQUARE { } 
 curveright_1.09_3 { rotate -3 size 1.09 x 0.0727765 y 1.01573 }
}

 rule curveright_1.09_2 {
 SQUARE { } 
 curveright_1.09_2 { rotate -2 size 1.09 x 0.0636886 y 1.02565 }
}

 rule curveright_1.09_1 {
 SQUARE { } 
 curveright_1.09_1 { rotate -1 size 1.09 x 0.0544289 y 1.03541 }
}

rule curveleft_1.09_0 {
 SQUARE { } 
 curveleft_1.09_0 { rotate 0 size 1.09 x -0.044999 y 1.045 }
}

rule curveleft_1.09_1 {
 SQUARE { } 
 curveleft_1.09_1 { rotate 1 size 1.09 x -0.0544275 y 1.03541 }
}

rule curveleft_1.09_2 {
 SQUARE { } 
 curveleft_1.09_2 { rotate 2 size 1.09 x -0.0636873 y 1.02565 }
}

rule curveleft_1.09_3 {
 SQUARE { } 
 curveleft_1.09_3 { rotate 3 size 1.09 x -0.0727752 y 1.01573 }
}

rule curveleft_1.09_4 {
 SQUARE { } 
 curveleft_1.09_4 { rotate 4 size 1.09 x -0.0816887 y 1.00566 }
}

rule curveleft_1.09_5 {
 SQUARE { } 
 curveleft_1.09_5 { rotate 5 size 1.09 x -0.090425 y 0.995427 }
}

 rule curveright_1.1_5 {
 SQUARE { } 
 curveright_1.1_5 { rotate -5 size 1.1 x 0.095843 y 0.999971 }
}

 rule curveright_1.1_4 {
 SQUARE { } 
 curveright_1.1_4 { rotate -4 size 1.1 x 0.0870266 y 1.01029 }
}

 rule curveright_1.1_3 {
 SQUARE { } 
 curveright_1.1_3 { rotate -3 size 1.1 x 0.0780314 y 1.02046 }
}

 rule curveright_1.1_2 {
 SQUARE { } 
 curveright_1.1_2 { rotate -2 size 1.1 x 0.06886 y 1.03047 }
}

 rule curveright_1.1_1 {
 SQUARE { } 
 curveright_1.1_1 { rotate -1 size 1.1 x 0.0595154 y 1.04032 }
}

rule curveleft_1.1_0 {
 SQUARE { } 
 curveleft_1.1_0 { rotate 0 size 1.1 x -0.049999 y 1.05 }
}

rule curveleft_1.1_1 {
 SQUARE { } 
 curveleft_1.1_1 { rotate 1 size 1.1 x -0.059514 y 1.04032 }
}

rule curveleft_1.1_2 {
 SQUARE { } 
 curveleft_1.1_2 { rotate 2 size 1.1 x -0.0688587 y 1.03047 }
}

rule curveleft_1.1_3 {
 SQUARE { } 
 curveleft_1.1_3 { rotate 3 size 1.1 x -0.07803 y 1.02046 }
}

rule curveleft_1.1_4 {
 SQUARE { } 
 curveleft_1.1_4 { rotate 4 size 1.1 x -0.0870253 y 1.0103 }
}

rule curveleft_1.1_5 {
 SQUARE { } 
 curveleft_1.1_5 { rotate 5 size 1.1 x -0.0958418 y 0.999973 }
}


rule test_i_curves {
    test_i_curves_0.9  { x -35 y -40 }
    test_i_curves_0.91 { x   0 y -40 }
    test_i_curves_0.92 { x  35 y -40 }
    test_i_curves_0.93 { x -40 y -20 }
    test_i_curves_0.94 { x   0 y -20 }
    test_i_curves_0.95 { x  40 y -20 }
    test_i_curves_0.96 { x -55 y   0 }
    test_i_curves_0.97 { x   0 y   0 }
    test_i_curves_0.98 { x  55 y   0 }
    test_i_curves_0.99 { x   0 y  40 }
}

rule test_i_curves_0.9 {
    curveright_0.9_5 { x 10 }
    curveright_0.9_4 { x 8 }
    curveright_0.9_3 { x 6 }
    curveright_0.9_2 { x 4 }
    curveright_0.9_1 { x 2 }
    curveleft_0.9_0 { }
    curveleft_0.9_1 { x -2 }
    curveleft_0.9_2 { x -4 }
    curveleft_0.9_3 { x -6 }
    curveleft_0.9_4 { x -8 }
    curveleft_0.9_5 { x -10 }
}

rule test_i_curves_0.91 {
    curveright_0.91_5 { x 10 }
    curveright_0.91_4 { x 8 }
    curveright_0.91_3 { x 6 }
    curveright_0.91_2 { x 4 }
    curveright_0.91_1 { x 2 }
    curveleft_0.91_0 { }
    curveleft_0.91_1 { x -2 }
    curveleft_0.91_2 { x -4 }
    curveleft_0.91_3 { x -6 }
    curveleft_0.91_4 { x -8 }
    curveleft_0.91_5 { x -10 }
}

rule test_i_curves_0.92 {
    curveright_0.92_5 { x 10 }
    curveright_0.92_4 { x 8 }
    curveright_0.92_3 { x 6 }
    curveright_0.92_2 { x 4 }
    curveright_0.92_1 { x 2 }
    curveleft_0.92_0 { }
    curveleft_0.92_1 { x -2 }
    curveleft_0.92_2 { x -4 }
    curveleft_0.92_3 { x -6 }
    curveleft_0.92_4 { x -8 }
    curveleft_0.92_5 { x -10 }
}

rule test_i_curves_0.93 {
    curveright_0.93_5 { x 10 }
    curveright_0.93_4 { x 8 }
    curveright_0.93_3 { x 6 }
    curveright_0.93_2 { x 4 }
    curveright_0.93_1 { x 2 }
    curveleft_0.93_0 { }
    curveleft_0.93_1 { x -2 }
    curveleft_0.93_2 { x -4 }
    curveleft_0.93_3 { x -6 }
    curveleft_0.93_4 { x -8 }
    curveleft_0.93_5 { x -10 }
}

rule test_i_curves_0.94 {
    curveright_0.94_5 { x 10 }
    curveright_0.94_4 { x 8 }
    curveright_0.94_3 { x 6 }
    curveright_0.94_2 { x 4 }
    curveright_0.94_1 { x 2 }
    curveleft_0.94_0 { }
    curveleft_0.94_1 { x -2 }
    curveleft_0.94_2 { x -4 }
    curveleft_0.94_3 { x -6 }
    curveleft_0.94_4 { x -8 }
    curveleft_0.94_5 { x -10 }
}

rule test_i_curves_0.95 {
    curveright_0.95_5 { x 10 }
    curveright_0.95_4 { x 8 }
    curveright_0.95_3 { x 6 }
    curveright_0.95_2 { x 4 }
    curveright_0.95_1 { x 2 }
    curveleft_0.95_0 { }
    curveleft_0.95_1 { x -2 }
    curveleft_0.95_2 { x -4 }
    curveleft_0.95_3 { x -6 }
    curveleft_0.95_4 { x -8 }
    curveleft_0.95_5 { x -10 }
}

rule test_i_curves_0.96 {
    curveright_0.96_5 { x 10 }
    curveright_0.96_4 { x 8 }
    curveright_0.96_3 { x 6 }
    curveright_0.96_2 { x 4 }
    curveright_0.96_1 { x 2 }
    curveleft_0.96_0 { }
    curveleft_0.96_1 { x -2 }
    curveleft_0.96_2 { x -4 }
    curveleft_0.96_3 { x -6 }
    curveleft_0.96_4 { x -8 }
    curveleft_0.96_5 { x -10 }
}

rule test_i_curves_0.97 {
    curveright_0.97_5 { x 10 }
    curveright_0.97_4 { x 8 }
    curveright_0.97_3 { x 6 }
    curveright_0.97_2 { x 4 }
    curveright_0.97_1 { x 2 }
    curveleft_0.97_0 { }
    curveleft_0.97_1 { x -2 }
    curveleft_0.97_2 { x -4 }
    curveleft_0.97_3 { x -6 }
    curveleft_0.97_4 { x -8 }
    curveleft_0.97_5 { x -10 }
}

rule test_i_curves_0.98 {
    curveright_0.98_5 { x 10 }
    curveright_0.98_4 { x 8 }
    curveright_0.98_3 { x 6 }
    curveright_0.98_2 { x 4 }
    curveright_0.98_1 { x 2 }
    curveleft_0.98_0 { }
    curveleft_0.98_1 { x -2 }
    curveleft_0.98_2 { x -4 }
    curveleft_0.98_3 { x -6 }
    curveleft_0.98_4 { x -8 }
    curveleft_0.98_5 { x -10 }
}

rule test_i_curves_0.99 {
    curveright_0.99_5 { x 10 }
    curveright_0.99_4 { x 8 }
    curveright_0.99_3 { x 6 }
    curveright_0.99_2 { x 4 }
    curveright_0.99_1 { x 2 }
    curveleft_0.99_0 { }
    curveleft_0.99_1 { x -2 }
    curveleft_0.99_2 { x -4 }
    curveleft_0.99_3 { x -6 }
    curveleft_0.99_4 { x -8 }
    curveleft_0.99_5 { x -10 }
}
